X: 33543
T: Raivlin, The
R: reel
M: 4/4
K: Dmajor
|:G/F/E|DCDG FEDA|GFED d2 dc|BDAD GDFD|EDGE FGEF|
D2 DG F2 E/D/C|G2 F/E/D dfdc|BDAd GDFD|E2 G/F/E D2:|
|:FG|Adcd BdAd|cdef g/a/g fg|efge fgef|gAaA agfe|
dAed fdgd|fedc B/c/B AG|BDAD GDFd|ED F/G/A D2:|

